svg/300/outlined/screenshot_region-fill.svg

<svg xmlns="http://www.w3.org/2000/svg" width="48" height="48" viewBox="0 -960 960 960"><path d="M694.615-95.387v-124.614H570.001v-45.384h124.614v-124.614h45.384v124.614h124.614v45.384H739.999v124.614h-45.384ZM220.001-220.001v-169.998h45.384v124.614h124.614v45.384H220.001Zm0-350v-169.998h169.998v45.384H265.385v124.614h-45.384Zm474.614 0v-124.614H570.001v-45.384h169.998v169.998h-45.384Z"/></svg>

<svg xmlns="http://www.w3.org/2000/svg" width="48" height="48" viewBox="0 -960 960 960"><path d="M694.61-95.39V-220H570v-45.39h124.61V-390H740v124.61h124.61V-220H740v124.61h-45.39ZM220-220v-170h45.39v124.61H390V-220H220Zm0-350v-170h170v45.39H265.39V-570H220Zm474.61 0v-124.61H570V-740h170v170h-45.39Z"/></svg>
